X: 76
M: 2/4
L: 1/8
K: G
|:\
bgaf | gefd | ^cdef | e/d/c/B/ AA |
dAfd afd'b | agfe | d2d2 |\


